X: 2
T: V\"ava vadmal II
T: (som den spelas p\aa Skansen)
B: "Svenska Folkdanser och S\"allskapsdanser" 1952 p.33
S: Svenska Ungdomsringer f\"or Bygdekultur
M: 3/4
L: 1/8
K: D
!Intro!\
|  "A7"e>f  g2 g>g | "D"f>e f2 f2 | "A7"A>c   e2 e>e | "D"f2 d4   ||
|:"A7"{f}ec A2 Bc  | "D"d2  d4    | "A7"{f}ec A2 Bc  | "D"d2 d4   ||
||  "G"d>d  g2 g>g | "D"f>e f2 f2 | "A7"A>c   e2 e2  | "D"d>f a3 g |
|  "A7"e>f  g2 g>g | "D"f>e f2 f2 | "A7"A>c   e2 e>e | "D"f2 d4   :|
